dist/svg/track-duo-tone.svg

<svg xmlns="http://www.w3.org/2000/svg" viewBox="0 0 24 24"><path d="M11.617 2.283c-.585.069-1.098.328-1.552.781a2.6 2.6 0 0 0-.684 1.101c-.199.629-.168 1.126.121 1.898.352.943 1.36 2.704 1.727 3.019.315.269.784.351 1.191.208.3-.105.556-.385.96-1.05.719-1.181 1.196-2.217 1.326-2.877.214-1.083-.429-2.304-1.486-2.824a2.87 2.87 0 0 0-1.603-.256m.909 1.594c.386.199.661.581.702.976.028.27-.052.552-.313 1.106C12.71 6.393 12.037 7.6 12 7.6s-.71-1.207-.915-1.641c-.262-.556-.341-.836-.312-1.109.047-.456.425-.91.873-1.046.22-.068.681-.029.88.073M8.18 8.267a6.3 6.3 0 0 0-3.44 1.247c-.554.411-1.196 1.12-1.581 1.747a6.3 6.3 0 0 0-.736 4.664c.285 1.178.775 2.068 1.613 2.929a6.16 6.16 0 0 0 3.904 1.865c.587.055 7.533.055 8.12 0a6.16 6.16 0 0 0 3.904-1.865c1.047-1.076 1.626-2.344 1.759-3.855.204-2.31-.945-4.567-2.97-5.83a6.8 6.8 0 0 0-1.733-.724c-.594-.147-1.68-.243-2.096-.186-.636.088-.896.819-.449 1.265.192.192.365.235.945.236 1.025.001 1.899.258 2.74.805.335.218 1.057.94 1.275 1.275 1.278 1.963 1.013 4.467-.641 6.061-.556.536-1.067.851-1.774 1.092-.713.244-.761.247-4.165.247H9.76v-1.48l2.97-.001c1.747 0 3.083-.017 3.244-.04a3.5 3.5 0 0 0 1.166-.408c.367-.214.957-.804 1.171-1.171a3.27 3.27 0 0 0 .416-2.011c-.102-.804-.37-1.342-.963-1.93-.325-.323-.446-.413-.788-.586-.732-.371-.474-.353-4.976-.353-4.496 0-4.237-.018-4.973.35-.35.175-.461.258-.791.587-.433.432-.655.774-.818 1.261a3.3 3.3 0 0 0 .271 2.682c.214.367.804.957 1.171 1.171.323.19.804.36 1.132.401l.228.028.011.75.011.75h-.096c-.209 0-.825-.13-1.166-.246A4.74 4.74 0 0 1 3.76 14.5c0-.94.274-1.844.805-2.66.208-.319.935-1.052 1.241-1.252.884-.575 1.728-.827 2.774-.828.58-.001.753-.044.945-.236a.739.739 0 0 0-.348-1.246c-.149-.034-.461-.038-.997-.011m7.95 4.606c.44.178.824.563.996 1.001.127.322.127.93 0 1.252a1.85 1.85 0 0 1-.996 1.001l-.23.093H8.1l-.226-.091a1.77 1.77 0 0 1-.91-2.457c.111-.216.492-.597.708-.708.4-.204.312-.2 4.408-.192l3.82.008z" fill-rule="evenodd"/></svg>

<svg fill="none" xmlns="http://www.w3.org/2000/svg" viewBox="0 0 24 24"><path d="M11.617 2.283 C 11.032 2.352,10.519 2.611,10.065 3.064 C 9.729 3.399,9.515 3.744,9.381 4.165 C 9.182 4.794,9.213 5.291,9.502 6.063 C 9.854 7.006,10.862 8.767,11.229 9.082 C 11.544 9.351,12.013 9.433,12.420 9.290 C 12.720 9.185,12.976 8.905,13.380 8.240 C 14.099 7.059,14.576 6.023,14.706 5.363 C 14.920 4.280,14.277 3.059,13.220 2.539 C 12.745 2.305,12.184 2.215,11.617 2.283 M12.526 3.877 C 12.912 4.076,13.187 4.458,13.228 4.853 C 13.256 5.123,13.176 5.405,12.915 5.959 C 12.710 6.393,12.037 7.600,12.000 7.600 C 11.963 7.600,11.290 6.393,11.085 5.959 C 10.823 5.403,10.744 5.123,10.773 4.850 C 10.820 4.394,11.198 3.940,11.646 3.804 C 11.866 3.736,12.327 3.775,12.526 3.877 M8.180 8.267 C 6.946 8.329,5.754 8.761,4.740 9.514 C 4.186 9.925,3.544 10.634,3.159 11.261 C 2.324 12.619,2.047 14.372,2.423 15.925 C 2.708 17.103,3.198 17.993,4.036 18.854 C 5.090 19.937,6.432 20.578,7.940 20.719 C 8.527 20.774,15.473 20.774,16.060 20.719 C 17.568 20.578,18.910 19.937,19.964 18.854 C 21.011 17.778,21.590 16.510,21.723 14.999 C 21.927 12.689,20.778 10.432,18.753 9.169 C 18.294 8.883,17.572 8.581,17.020 8.445 C 16.426 8.298,15.340 8.202,14.924 8.259 C 14.288 8.347,14.028 9.078,14.475 9.524 C 14.667 9.716,14.840 9.759,15.420 9.760 C 16.445 9.761,17.319 10.018,18.160 10.565 C 18.495 10.783,19.217 11.505,19.435 11.840 C 20.713 13.803,20.448 16.307,18.794 17.901 C 18.238 18.437,17.727 18.752,17.020 18.993 C 16.307 19.237,16.259 19.240,12.855 19.240 L 9.760 19.240 9.760 18.500 L 9.760 17.760 12.730 17.759 C 14.477 17.759,15.813 17.742,15.974 17.719 C 16.356 17.664,16.809 17.505,17.140 17.311 C 17.507 17.097,18.097 16.507,18.311 16.140 C 18.659 15.546,18.812 14.806,18.727 14.129 C 18.625 13.325,18.357 12.787,17.764 12.199 C 17.439 11.876,17.318 11.786,16.976 11.613 C 16.244 11.242,16.502 11.260,12.000 11.260 C 7.504 11.260,7.763 11.242,7.027 11.610 C 6.677 11.785,6.566 11.868,6.236 12.197 C 5.803 12.629,5.581 12.971,5.418 13.458 C 5.123 14.344,5.224 15.348,5.689 16.140 C 5.903 16.507,6.493 17.097,6.860 17.311 C 7.183 17.501,7.664 17.671,7.992 17.712 L 8.220 17.740 8.231 18.490 L 8.242 19.240 8.146 19.240 C 7.937 19.240,7.321 19.110,6.980 18.994 C 5.052 18.338,3.760 16.535,3.760 14.500 C 3.760 13.560,4.034 12.656,4.565 11.840 C 4.773 11.521,5.500 10.788,5.806 10.588 C 6.690 10.013,7.534 9.761,8.580 9.760 C 9.160 9.759,9.333 9.716,9.525 9.524 C 9.938 9.111,9.742 8.409,9.177 8.278 C 9.028 8.244,8.716 8.240,8.180 8.267 M16.130 12.873 C 16.570 13.051,16.954 13.436,17.126 13.874 C 17.253 14.196,17.253 14.804,17.126 15.126 C 16.954 15.564,16.570 15.949,16.130 16.127 L 15.900 16.220 12.000 16.220 L 8.100 16.220 7.874 16.129 C 6.905 15.737,6.487 14.607,6.964 13.672 C 7.075 13.456,7.456 13.075,7.672 12.964 C 8.072 12.760,7.984 12.764,12.080 12.772 L 15.900 12.780 16.130 12.873 " stroke="none" fill-rule="evenodd" fill="currentColor"/></svg>
